web/src/assets/text.svg

<svg xmlns="http://www.w3.org/2000/svg" width="512" height="55" fill="none">
  <g clip-path="url(#a)">
    <path fill="#00575C" d="M11.0148 21.1181v32.057H0V0h9.64745L29.854 33.5763 49.6807 0h9.7234l.076 53.1751H48.4653l-.076-32.5887-16.1044 26.8154h-5.2416L11.0148 21.1181Zm73.2297 32.057H72.546V0h11.6985v53.1751Zm24.6125-33.1965v33.1965H97.3104V0h9.6476l27.119 33.1965V0H145.7v53.1751h-9.648l-27.195-33.1965Zm49.909 6.6089h11.698v16.9401h11.623c2.734 0 5.203-.3925 7.406-1.1774 2.203-.785 4.09-1.9245 5.66-3.4184 1.569-1.494 2.785-3.2792 3.646-5.3555.861-2.0764 1.291-4.406 1.291-6.9888 0-2.5827-.43-4.9123-1.291-6.9887-.861-2.0763-2.077-3.8615-3.646-5.3555-1.57-1.4939-3.457-2.6334-5.66-3.4183-2.203-.785-4.672-1.17752-7.406-1.17752h-23.321V0h23.928c4.356 0 8.319.633037 11.889 1.89911 3.57 1.26607 6.647 3.05125 9.229 5.3555 2.583 2.30426 4.584 5.08959 6.002 8.35609 1.418 3.2665 2.127 6.9254 2.127 10.9768 0 4.0008-.709 7.6471-2.127 10.9389-1.418 3.2918-3.419 6.0898-6.002 8.3941-2.582 2.3043-5.659 4.0894-9.229 5.3555-3.57 1.266-7.533 1.8991-11.889 1.8991h-23.928V26.5875Zm62.746 26.5876V24.0807h36.615v9.4956h-24.916v19.5988h-11.699Zm0-43.67955V0h39.805v9.49555h-39.805Zm71.939 44.51515c-3.748 0-7.091-.5317-10.028-1.5952-2.937-1.0636-5.431-2.6208-7.482-4.6718-2.051-2.0511-3.621-4.5832-4.71-7.5965-1.089-3.0132-1.633-6.4696-1.633-10.3691V0h11.698v29.3982c0 5.1656 1.064 8.9005 3.191 11.2048 2.127 2.3042 5.14 3.4564 9.039 3.4564 3.9 0 6.913-1.1522 9.04-3.4564 2.127-2.3043 3.191-6.0392 3.191-11.2048V0h11.546v29.7781c0 3.8995-.544 7.3559-1.633 10.3691-1.089 3.0133-2.659 5.5454-4.71 7.5965-2.051 2.051-4.545 3.6082-7.482 4.6718-2.938 1.0635-6.28 1.5952-10.027 1.5952Zm75.052-.8356h-38.59V0h11.699v43.5276h26.891v9.6475Zm26.664-18.8392v18.8392h-11.775V34.26L362.73 0h12.458l14.509 24.1567L404.283 0h11.546l-20.662 34.3359Zm68.824 9.1917v9.6475h-46.187v-7.5965l29.702-35.93112h-29.094V0h44.515v7.59644L433.225 43.5276h30.766Zm8.204-12.762v-9.1917H512v9.1917h-39.805Zm0-21.27005V0H512v9.49555h-39.805Zm0 34.18395v9.4956H512v-9.4956h-39.805Z"/>
  </g>
  <defs>
    <clipPath id="a">
      <path fill="#fff" d="M0 0h512v54.0107H0z"/>
    </clipPath>
  </defs>
</svg>

<svg width="512" height="55" fill="none" xmlns="http://www.w3.org/2000/svg" viewBox="0 0 512 55">
<path d="M11.0148 21.1181V53.1751H0V0H9.64745L29.854 33.5763L49.6807 0H59.4041L59.4801 53.1751H48.4653L48.3893 20.5864L32.2849 47.4018H27.0433L11.0148 21.1181ZM84.2445 53.1751H72.546V0H84.2445V53.1751ZM108.857 19.9786V53.1751H97.3104V0H106.958L134.077 33.1965V0H145.7V53.1751H136.052L108.857 19.9786ZM158.766 26.5875H170.464V43.5276H182.087C184.821 43.5276 187.29 43.1351 189.493 42.3502C191.696 41.5652 193.583 40.4257 195.153 38.9318C196.722 37.4378 197.938 35.6526 198.799 33.5763C199.66 31.4999 200.09 29.1703 200.09 26.5875C200.09 24.0048 199.66 21.6752 198.799 19.5988C197.938 17.5225 196.722 15.7373 195.153 14.2433C193.583 12.7494 191.696 11.6099 189.493 10.825C187.29 10.04 184.821 9.64748 182.087 9.64748H158.766V0H182.694C187.05 0 191.013 0.633037 194.583 1.89911C198.153 3.16518 201.23 4.95036 203.812 7.25461C206.395 9.55887 208.396 12.3442 209.814 15.6107C211.232 18.8772 211.941 22.5361 211.941 26.5875C211.941 30.5883 211.232 34.2346 209.814 37.5264C208.396 40.8182 206.395 43.6162 203.812 45.9205C201.23 48.2248 198.153 50.0099 194.583 51.276C191.013 52.542 187.05 53.1751 182.694 53.1751H158.766V26.5875ZM221.512 53.1751V24.0807H258.127V33.5763H233.211V53.1751H221.512ZM221.512 9.49555V0H261.317V9.49555H221.512ZM293.451 54.0107C289.703 54.0107 286.36 53.479 283.423 52.4154C280.486 51.3519 277.992 49.7947 275.941 47.7437C273.89 45.6926 272.32 43.1605 271.231 40.1472C270.142 37.134 269.598 33.6776 269.598 29.7781V0H281.296V29.3982C281.296 34.5638 282.36 38.2987 284.487 40.603C286.614 42.9072 289.627 44.0594 293.526 44.0594C297.426 44.0594 300.439 42.9072 302.566 40.603C304.693 38.2987 305.757 34.5638 305.757 29.3982V0H317.303V29.7781C317.303 33.6776 316.759 37.134 315.67 40.1472C314.581 43.1605 313.011 45.6926 310.96 47.7437C308.909 49.7947 306.415 51.3519 303.478 52.4154C300.54 53.479 297.198 54.0107 293.451 54.0107ZM368.503 53.1751H329.913V0H341.612V43.5276H368.503V53.1751ZM395.167 34.3359V53.1751H383.392V34.26L362.73 0H375.188L389.697 24.1567L404.283 0H415.829L395.167 34.3359ZM463.991 43.5276V53.1751H417.804V45.5786L447.506 9.64748H418.412V0H462.927V7.59644L433.225 43.5276H463.991ZM472.195 30.7656V21.5739H512V30.7656H472.195ZM472.195 9.49555V0H512V9.49555H472.195ZM472.195 43.6795V53.1751H512V43.6795H472.195Z" fill="#00575C"/>
</svg>
